static/images/icon2.svg

<svg height="86" viewBox="0 0 86 86" width="86" xmlns="http://www.w3.org/2000/svg"><g fill="none"><circle cx="43" cy="43" fill="#02afde" r="43"/><path d="m42.513327 44.5172194-5.6035067 3.555051c-.4905407.3112153-1.1442026.1716066-1.4599947-.3118248s-.1741303-1.1276198.3164104-1.4388352l6.177426-3.9191643v-12.7123363l-11.0029709-6.2794853-10.828015 6.2748769v12.7255308l6.0056107 3.9178375c.4864725.3173567.6197847.9632736.297761 1.4426958s-.9774394.6108022-1.463912.2934456l-6.9521358-4.5353153v-15.0352336l12.9325483-7.4944622 12.5617651 7.1691018 10.8506135-6.326169c.3283372-.1914285.7351897-.1927714 1.064805-.0035145l12.0633023 6.9264456c.3261537.1872693.5269658.5326504.5269658.9063401v13.9646082c0 .3561354-.1825237.6878665-.4845428.8806414l-6.6619287 4.2522232c-.4905376.3131038-1.1441952.172648-1.4599853-.3137168-.31579-.4863649-.1741291-1.1344623.3164084-1.4475661l6.177386-3.9429458v-12.7894746l-11.0028997-6.3175891-10.8280999 6.3130431v12.7460656l5.6534981 3.7114804c.4864725.3193658.6197847.9693717.297761 1.451829-.3220237.4824572-.9774394.614669-1.463912.2953033zm11.402166 11.912049v-12.7999839l-6.006276-3.9475104c-.4862292-.3195649-.6190462-.9693346-.2966551-1.4513013s.9779074-.6136194 1.4641366-.2940545l6.4788732 4.258116c.295147.1939797.4725973.5216519.4725973.8726779v13.9610362c0 .371105-.1981684.7144866-.5208949.9025946l-11.8802817 6.9246739c-.3283393.1913795-.7351945.192722-1.0648119.0035136l-12.0633803-6.9246739c-.3261558-.1872214-.5269692-.5325142-.5269692-.9061082v-13.9610362c0-.3560444.1825248-.6876906.4845459-.8804162l6.6619718-4.2511355c.4905407-.3130237 1.1442026-.1726038 1.4599947.3136366.3157921.4862405.1741303 1.1341721-.3164104 1.4471958l-6.177426 3.9419372v12.7862032l11.0029709 6.3159731z" fill="#fff"/></g></svg>

<?xml version="1.0" encoding="UTF-8"?>
<svg width="86px" height="86px" viewBox="0 0 86 86" version="1.1" xmlns="http://www.w3.org/2000/svg" xmlns:xlink="http://www.w3.org/1999/xlink">
    <!-- Generator: sketchtool 46.2 (44496) - http://www.bohemiancoding.com/sketch -->
    <title>01ED8170-F951-4FD7-99A0-1A9663DA5997</title>
    <desc>Created with sketchtool.</desc>
    <defs></defs>
    <g id="Page-1" stroke="none" stroke-width="1" fill="none" fill-rule="evenodd">
        <g id="icons" transform="translate(-996.000000, -1503.000000)" fill-rule="nonzero">
            <g transform="translate(63.000000, 1503.000000)" id="4">
                <g transform="translate(852.000000, 0.000000)">
                    <g id="icon" transform="translate(81.000000, 0.000000)">
                        <circle id="Oval" fill="#02AFDE" cx="43" cy="43" r="43"></circle>
                        <path d="M42.513327,44.5172194 L36.9098203,48.0722704 C36.4192796,48.3834857 35.7656177,48.243877 35.4498256,47.7604456 C35.1340335,47.2770142 35.2756953,46.6328258 35.766236,46.3216104 L41.943662,42.4024461 L41.943662,29.6901098 L30.9406911,23.4106245 L20.1126761,29.6855014 L20.1126761,42.4110322 L26.1182868,46.3288697 C26.6047593,46.6462264 26.7380715,47.2921433 26.4160478,47.7715655 C26.0940241,48.2509877 25.4386084,48.3823677 24.9521358,48.0650111 L18,43.5296958 L18,28.4944622 L30.9325483,21 L43.4943134,28.1691018 L54.3449269,21.8429328 C54.6732641,21.6515043 55.0801166,21.6501614 55.4097319,21.8394183 L67.4730342,28.7658639 C67.7991879,28.9531332 68,29.2985143 68,29.672204 L68,43.6368122 C68,43.9929476 67.8174763,44.3246787 67.5154572,44.5174536 L60.8535285,48.7696768 C60.3629909,49.0827806 59.7093333,48.9423248 59.3935432,48.45596 C59.0777532,47.9695951 59.2194141,47.3214977 59.7099516,47.0083939 L65.8873376,43.0654481 L65.8873376,30.2759735 L54.8844379,23.9583844 L44.056338,30.2714275 L44.056338,43.0174931 L49.7098361,46.7289735 C50.1963086,47.0483393 50.3296208,47.6983452 50.0075971,48.1808025 C49.6855734,48.6632597 49.0301577,48.7954715 48.5436851,48.4761058 L42.513327,44.5172194 Z M53.915493,56.4292684 L53.915493,43.6292845 L47.909217,39.6817741 C47.4229878,39.3622092 47.2901708,38.7124395 47.6125619,38.2304728 C47.934953,37.7485061 48.5904693,37.6168534 49.0766985,37.9364183 L55.5555717,42.1945343 C55.8507187,42.388514 56.028169,42.7161862 56.028169,43.0672122 L56.028169,57.0282484 C56.028169,57.3993534 55.8300006,57.742735 55.5072741,57.930843 L43.6269924,64.8555169 C43.2986531,65.0468964 42.8917979,65.0482389 42.5621805,64.8590305 L30.4988002,57.9343566 C30.1726444,57.7471352 29.971831,57.4018424 29.971831,57.0282484 L29.971831,43.0672122 C29.971831,42.7111678 30.1543558,42.3795216 30.4563769,42.186796 L37.1183487,37.9356605 C37.6088894,37.6226368 38.2625513,37.7630567 38.5783434,38.2492971 C38.8941355,38.7355376 38.7524737,39.3834692 38.261933,39.6964929 L32.084507,43.6384301 L32.084507,56.4246333 L43.0874779,62.7406064 L53.915493,56.4292684 Z" id="Combined-Shape" fill="#FFFFFF"></path>
                    </g>
                </g>
            </g>
        </g>
    </g>
</svg>
